X:1
T:Luci serene di gioia
T:Piero Benedetti
T:Source : Musische di Piero Benedetti---Fiorenza---Heredes di C.Marescotti---1611. Editor : André Vierendeels (22/05/15).
T:Notes : Original clefs : C1, F4 Figures in BC are notated in original print
T:Luci serene di gioia
C:Piero Benedetti
%%score 1 2
L:1/8
Q:1/4=80
M:6/4
K:F
V:1 treble nm="Soprano" snm="S"
V:2 bass nm="BC" snm="BC"
V:1
 G2 B2 c2 d2 d3 f | _e4 d2 c6 | B6 d2 c2 B2 | c3 c d2 _e4 e2 | d6 c6 | c2 G2 A2 B3 c d2 | %6
w: Lu- ci se- re- ne di|gio- a pie-|ne, lu- ci piu|bel- la dell' Au- re|Stel- le,|fiam- me d'A- mo- re, che|
w: La bel- la'Au- ro- re per|voi s'in- du-|ra, el Sir di|De- le ri- splen- d'in|Cie- lo,|per toui Scin- til- la o-|
w: La not- t'el son- no un-|qua non pon-|no, ce- lar a|pie- no il bel se-|re- no,|di quel- la lu- co ch'al|
w: L'ar- gen- tea di- va per|voi rav- vi-|va, gl'et- te- rai|cam- pi e da- vrei|lam- pi,|splen- don le Stel- le del|
w: Se tran- quil- la- te e|se- re- na-|te, co'i vo- stri|ra- i il Ciel o-|ma- i,|Deh non sde- gna- te O|
 d4 ^c2 d4 d2 | d2 _e2 c2 d2 d2 B2 | c4 B2 A6 | G6 d2 _e2 c2 | d2 d2 B2 c4 B2 | A6 G6 :| %12
w: di splen- do- re,|vin- ce- te'il So- le- al|Mon- do So-|le, vin- ce- te'il|So- le al Mon- do|So- le.|
w: gni fa- vil- la,|Lu- ci d'A- mo- re fiam-|ma del co-|re, Lu- ci d'A-|mo- re fiam- ma del|co- re.|
w: cie- lo'e du- co,|di quel- la fiam- ma ch'el|mon- do'in- fa-|me, di quel- la|fiam- ma ch'el mon- do'in-|fa- me.|
w: Ciel fa- cel- le,|fe- re- tro'a- dor- no del|mor- to gior-|no, fe- re- tro'a-|dor- no del mor- to|gior- no.|
w: Lu- ci'a- ma- te,|ch'al bel se- re- no mi|ven- ga me-|vo, ch'al bel se-|re- no mi ven- ga|me- vo.|
V:2
 G,2 G,2 A,2 B,4 D,2 |"^4          3" _E,4 B,,2 F,4 F,2 | B,,6 B,2 A,2 G,2 | %3
"^6" F,3 E, D,2 C,4 F,,2 |"^4""^3-natural" G,,4 G,,2 C,6 | C,2 B,,2 A,,2 G,,4 G,2 | %6
"^#" A,4 A,2 D,4 D,2 |"^-natural" G,2 C,2 F,2 B,,2 B,,2 _E,2 |"^b""^4""^#""^3" C,4 G,,2 D,4 D,2 | %9
"^-natural""^-natural" G,,6 G,2 C,2 F,2 |"^b" B,,2 B,,2 _E,2 C,4 G,,2 | %11
"^4""^#""^-natural""^3" D,4 D,2 G,,6 :| %12

